src/images_karasa_jaga_svg/cmd/sc_merge.svg

<svg height="16" width="16" xmlns="http://www.w3.org/2000/svg" xmlns:xlink="http://www.w3.org/1999/xlink"><linearGradient id="a" gradientTransform="matrix(0 .06940294 .11152913 0 -49.287814 40.766347)" gradientUnits="userSpaceOnUse" x1="399.77466" x2="399.77466" y1="1164.6696" y2="549.06134"><stop offset="0" stop-color="#717174"/><stop offset=".5" stop-color="#9c9ca1"/><stop offset="1" stop-color="#bdbdc2"/></linearGradient><linearGradient id="b" gradientTransform="matrix(0 .57141947 .76189347 0 -2.475975 42.984941)" gradientUnits="userSpaceOnUse" x1="119.57646" x2="-56.671597" y1="23.792561" y2="160.75211"><stop offset="0" stop-color="#fff"/><stop offset=".3866711" stop-color="#fff"/><stop offset=".78752875" stop-color="#e5e5e5"/><stop offset=".84666777" stop-color="#eaeaea"/><stop offset="1" stop-color="#eee"/></linearGradient><linearGradient id="c" gradientTransform="matrix(0 -1.3692663 -1.7142582 0 101.14142 195.38729)" gradientUnits="userSpaceOnUse" x1="129.03444" x2="87.85688" y1="-11.001015" y2="21.666176"><stop offset="0" stop-color="#fff"/><stop offset="1" stop-color="#fff" stop-opacity="0"/></linearGradient><g transform="scale(.125)"><path d="m84.001953 3.015625a40.984135 40.984135 0 0 0 -40.783203 36.984375h-32.054688c-1.753291 0-3.164062 1.213165-3.164062 2.720703v74.558597c0 1.50754 1.410771 2.7207 3.164062 2.7207h73.671876c1.753291 0 3.164062-1.21316 3.164062-2.7207v-32.531253a40.984135 40.984135 0 0 0 36.98438-40.75 40.984135 40.984135 0 0 0 -40.982427-40.982422z" fill="url(#a)" opacity=".75"/><g fill-rule="evenodd"><path d="m84.007812 9.5585938a34.44014 34.44014 0 0 0 -34.439453 34.4394532 34.44014 34.44014 0 0 0 .275391 4.001953h-32.320312c-.844178 0-1.523438.564277-1.523438 1.265625v61.468755c0 .70134.67926 1.26562 1.523438 1.26562h60.953124c.844178 0 1.523438-.56428 1.523438-1.26562v-32.552739a34.44014 34.44014 0 0 0 4.007812.257812 34.44014 34.44014 0 0 0 34.441408-34.441406 34.44014 34.44014 0 0 0 -34.441408-34.4394532z" fill="url(#b)"/><path d="m110.57422 22.121094c-18.22278 9.577639-41.229566 20.096566-60.994142 22.236328a34.44014 34.44014 0 0 0 5.433594 18.09375c-13.018289 2.813916-27.221954 4.336828-39.013672 5.548828v37.26953c17.882494-7.201745 39.587953-17.681514 55.652344-29.556639a34.811318 34.811318 0 0 0 .605468.224609c16.565688-11.161746 32.783128-25.713557 45.732418-37.443359a34.44014 34.44014 0 0 0 -7.41601-16.373047z" fill="url(#c)"/></g></g></svg>

<?xml version="1.0" encoding="UTF-8" standalone="no"?>
<!-- Created with Inkscape (http://www.inkscape.org/) -->

<svg
   xmlns:dc="http://purl.org/dc/elements/1.1/"
   xmlns:cc="http://creativecommons.org/ns#"
   xmlns:rdf="http://www.w3.org/1999/02/22-rdf-syntax-ns#"
   xmlns:svg="http://www.w3.org/2000/svg"
   xmlns="http://www.w3.org/2000/svg"
   xmlns:xlink="http://www.w3.org/1999/xlink"
   xmlns:sodipodi="http://sodipodi.sourceforge.net/DTD/sodipodi-0.dtd"
   xmlns:inkscape="http://www.inkscape.org/namespaces/inkscape"
   width="128"
   height="128"
   id="svg1307"
   sodipodi:version="0.32"
   inkscape:version="0.92.3 (unknown)"
   version="1.0"
   sodipodi:docname="sc_merge.svg"
   inkscape:export-filename="/home/rizmut/Dokumen/Rizmut/Github/libreoffice-style-karasa-jaga/build/images_karasa_jaga/cmd/sc_merge.png"
   inkscape:export-xdpi="12"
   inkscape:export-ydpi="12"
   inkscape:output_extension="org.inkscape.output.svgz.inkscape">
  <defs
     id="defs1309">
    <linearGradient
       id="linearGradient2783">
      <stop
         style="stop-color:#323232;stop-opacity:1;"
         offset="0"
         id="stop2785" />
      <stop
         id="stop2787"
         offset="0.07692308"
         style="stop-color:#dfe1e1;stop-opacity:1;" />
      <stop
         style="stop-color:#b6b1b1;stop-opacity:1;"
         offset="0.26289096"
         id="stop2799" />
      <stop
         id="stop2789"
         offset="0.5"
         style="stop-color:#8d8282;stop-opacity:1;" />
      <stop
         style="stop-color:#ffffff;stop-opacity:1;"
         offset="0.78201604"
         id="stop2791" />
      <stop
         style="stop-color:#dfd9df;stop-opacity:1;"
         offset="0.9005897"
         id="stop2793" />
      <stop
         style="stop-color:#3a3a3a;stop-opacity:1;"
         offset="1"
         id="stop2795" />
    </linearGradient>
    <linearGradient
       id="linearGradient2431">
      <stop
         style="stop-color:#ffffff;stop-opacity:1;"
         offset="0"
         id="stop2433" />
      <stop
         id="stop2435"
         offset="0.42597079"
         style="stop-color:#ffffff;stop-opacity:1;" />
      <stop
         id="stop2437"
         offset="0.5892781"
         style="stop-color:#f1f1f1;stop-opacity:1;" />
      <stop
         style="stop-color:#eaeaea;stop-opacity:1;"
         offset="0.80219781"
         id="stop2439" />
      <stop
         style="stop-color:#dfdfdf;stop-opacity:1;"
         offset="1"
         id="stop2441" />
    </linearGradient>
    <linearGradient
       id="linearGradient7422">
      <stop
         style="stop-color:#b4b4b6;stop-opacity:1;"
         offset="0"
         id="stop7424" />
      <stop
         id="stop5348"
         offset="0.5"
         style="stop-color:#9c9ca1;stop-opacity:1;" />
      <stop
         id="stop7426"
         offset="1"
         style="stop-color:#cdcdd1;stop-opacity:1;" />
    </linearGradient>
    <clipPath
       clipPathUnits="userSpaceOnUse"
       id="clipPath10698">
      <path
         style="fill:#ffffff;fill-opacity:1;fill-rule:nonzero;stroke:none;stroke-width:0.80000001;stroke-linecap:round;stroke-linejoin:round;stroke-miterlimit:4;stroke-dasharray:none;stroke-dashoffset:4;stroke-opacity:1"
         d="M -128.2008,-3.392377 L -104.45558,6.3360672 L -102.43766,6.1757677 L -103.81912,-4.5678172 L -105.75454,-5.8316609 L -124.96922,-4.4459394 L -128.2008,-3.392377 z "
         id="path10700"
         sodipodi:nodetypes="ccccccc" />
    </clipPath>
    <filter
       inkscape:collect="always"
       id="filter4420">
      <feGaussianBlur
         inkscape:collect="always"
         stdDeviation="3.0486726"
         id="feGaussianBlur4422" />
    </filter>
    <mask
       maskUnits="userSpaceOnUse"
       id="mask4424">
      <rect
         style="opacity:1;fill:#ffffff;fill-opacity:1;stroke:none;stroke-width:0.163;stroke-linecap:round;stroke-linejoin:round;stroke-miterlimit:4;stroke-dasharray:none;stroke-opacity:1;filter:url(#filter4420)"
         id="rect4426"
         width="112"
         height="100"
         x="12"
         y="4"
         rx="1.1997639"
         ry="1.4444447"
         transform="matrix(1.1453342,0,0,1.1453342,-3.2375486,-15.52592)" />
    </mask>
    <linearGradient
       id="linearGradient3323">
      <stop
         style="stop-color:#c7cdd7;stop-opacity:1;"
         offset="0"
         id="stop3325" />
      <stop
         style="stop-color:#ffffff;stop-opacity:1;"
         offset="1"
         id="stop3327" />
    </linearGradient>
    <linearGradient
       id="linearGradient4199">
      <stop
         style="stop-color:#f1f1f1;stop-opacity:1;"
         offset="0"
         id="stop4201-6" />
      <stop
         style="stop-color:#ffffff;stop-opacity:1;"
         offset="1"
         id="stop4203" />
    </linearGradient>
    <linearGradient
       id="linearGradient2399-5-5">
      <stop
         id="stop2401-5-5"
         offset="0"
         style="stop-color:#0968ef;stop-opacity:1;" />
      <stop
         id="stop2403-6-4"
         offset="1"
         style="stop-color:#aecffc;stop-opacity:1;" />
    </linearGradient>
    <linearGradient
       x1="399.77466"
       y1="1164.6696"
       x2="399.77466"
       y2="549.06134"
       id="linearGradient5507"
       xlink:href="#linearGradient7422-3"
       gradientUnits="userSpaceOnUse"
       gradientTransform="matrix(0.09253752,0,0,0.14870594,30.566011,47.945876)" />
    <linearGradient
       id="linearGradient7422-3">
      <stop
         id="stop7424-5"
         style="stop-color:#717174;stop-opacity:1"
         offset="0" />
      <stop
         id="stop5348-6"
         style="stop-color:#9c9ca1;stop-opacity:1"
         offset="0.5" />
      <stop
         id="stop7426-2"
         style="stop-color:#cdcdd1;stop-opacity:1"
         offset="1" />
    </linearGradient>
    <radialGradient
       cx="-33.5"
       cy="194.5"
       r="5.5"
       fx="-33.5"
       fy="194.5"
       id="radialGradient5509"
       xlink:href="#linearGradient2399"
       gradientUnits="userSpaceOnUse"
       gradientTransform="matrix(6.6492665,0,0,6.6492656,305.03583,-1117.9053)" />
    <linearGradient
       id="linearGradient2399">
      <stop
         id="stop2401"
         style="stop-color:#a9cbfc;stop-opacity:1"
         offset="0" />
      <stop
         id="stop2403"
         style="stop-color:#aecffc;stop-opacity:1"
         offset="1" />
    </linearGradient>
    <radialGradient
       cx="194.5"
       cy="-33.5"
       r="5.5"
       fx="194.5"
       fy="-33.5"
       id="radialGradient5511"
       xlink:href="#linearGradient2222"
       gradientUnits="userSpaceOnUse"
       gradientTransform="matrix(4.9357767,0,0,4.9357767,-870.64796,211.73605)" />
    <linearGradient
       id="linearGradient2222">
      <stop
         id="stop2224"
         style="stop-color:#8fbcff;stop-opacity:1"
         offset="0" />
      <stop
         id="stop2226"
         style="stop-color:#80b3ff;stop-opacity:1"
         offset="1" />
    </linearGradient>
    <linearGradient
       x1="399.77466"
       y1="1164.6696"
       x2="399.77466"
       y2="549.06134"
       id="linearGradient5501"
       xlink:href="#linearGradient4373"
       gradientUnits="userSpaceOnUse"
       gradientTransform="matrix(0,0.06940294,0.11152913,0,-49.287814,40.766347)" />
    <linearGradient
       id="linearGradient4373">
      <stop
         id="stop4375"
         style="stop-color:#717174;stop-opacity:1"
         offset="0" />
      <stop
         id="stop4377"
         style="stop-color:#9c9ca1;stop-opacity:1"
         offset="0.5" />
      <stop
         id="stop4379"
         style="stop-color:#bdbdc2;stop-opacity:1"
         offset="1" />
    </linearGradient>
    <linearGradient
       x1="119.57646"
       y1="23.792561"
       x2="-56.671597"
       y2="160.75211"
       id="linearGradient5503"
       xlink:href="#linearGradient2431-9"
       gradientUnits="userSpaceOnUse"
       gradientTransform="matrix(0,0.57141947,0.76189347,0,-2.4759754,42.984941)" />
    <linearGradient
       id="linearGradient2431-9">
      <stop
         id="stop2433-1"
         style="stop-color:#ffffff;stop-opacity:1"
         offset="0" />
      <stop
         id="stop2435-2"
         style="stop-color:#ffffff;stop-opacity:1"
         offset="0.3866711" />
      <stop
         id="stop2437-7"
         style="stop-color:#e5e5e5;stop-opacity:1"
         offset="0.78752875" />
      <stop
         id="stop2439-0"
         style="stop-color:#eaeaea;stop-opacity:1"
         offset="0.84666777" />
      <stop
         id="stop2441-9"
         style="stop-color:#eeeeee;stop-opacity:1"
         offset="1" />
    </linearGradient>
    <linearGradient
       x1="129.03444"
       y1="-11.001015"
       x2="87.85688"
       y2="21.666176"
       id="linearGradient5505"
       xlink:href="#linearGradient3310"
       gradientUnits="userSpaceOnUse"
       gradientTransform="matrix(0,-1.3692663,-1.7142582,0,101.14142,195.38729)" />
    <linearGradient
       id="linearGradient3310">
      <stop
         id="stop3312"
         style="stop-color:#ffffff;stop-opacity:1"
         offset="0" />
      <stop
         id="stop3314"
         style="stop-color:#ffffff;stop-opacity:0"
         offset="1" />
    </linearGradient>
    <linearGradient
       inkscape:collect="always"
       xlink:href="#linearGradient4373"
       id="linearGradient1723"
       x1="0"
       y1="122"
       x2="12"
       y2="122"
       gradientUnits="userSpaceOnUse" />
  </defs>
  <sodipodi:namedview
     id="base"
     pagecolor="#ffffff"
     bordercolor="#666666"
     borderopacity="1.0"
     inkscape:pageopacity="0.0"
     inkscape:pageshadow="2"
     inkscape:zoom="1.5652858"
     inkscape:cx="166.72272"
     inkscape:cy="-17.182004"
     inkscape:current-layer="layer1"
     showgrid="true"
     inkscape:document-units="px"
     inkscape:grid-bbox="true"
     guidetolerance="4"
     showguides="false"
     inkscape:guide-bbox="true"
     inkscape:window-width="1366"
     inkscape:window-height="706"
     inkscape:window-x="0"
     inkscape:window-y="0"
     objecttolerance="4"
     gridtolerance="4"
     inkscape:snap-nodes="true"
     inkscape:window-maximized="1">
    <sodipodi:guide
       orientation="horizontal"
       position="-32.073749"
       id="guide2204"
       inkscape:locked="false" />
    <inkscape:grid
       id="GridFromPre046Settings"
       type="xygrid"
       originx="0"
       originy="0"
       spacingx="8"
       spacingy="8"
       color="#0000ff"
       empcolor="#0000ff"
       opacity="0.2"
       empopacity="0.4"
       empspacing="1"
       visible="true"
       enabled="true" />
  </sodipodi:namedview>
  <metadata
     id="metadata1312">
    <rdf:RDF>
      <cc:Work
         rdf:about="">
        <dc:format>image/svg+xml</dc:format>
        <dc:type
           rdf:resource="http://purl.org/dc/dcmitype/StillImage" />
        <cc:license
           rdf:resource="http://creativecommons.org/licenses/GPL/2.0/" />
        <dc:contributor>
          <cc:Agent>
            <dc:title>Oxygen team</dc:title>
          </cc:Agent>
        </dc:contributor>
        <dc:title></dc:title>
      </cc:Work>
      <cc:License
         rdf:about="http://creativecommons.org/licenses/LGPL/2.1/">
        <cc:permits
           rdf:resource="http://web.resource.org/cc/Reproduction" />
        <cc:permits
           rdf:resource="http://web.resource.org/cc/Distribution" />
        <cc:requires
           rdf:resource="http://web.resource.org/cc/Notice" />
        <cc:permits
           rdf:resource="http://web.resource.org/cc/DerivativeWorks" />
        <cc:requires
           rdf:resource="http://web.resource.org/cc/ShareAlike" />
        <cc:requires
           rdf:resource="http://web.resource.org/cc/SourceCode" />
      </cc:License>
    </rdf:RDF>
  </metadata>
  <g
     id="layer1"
     inkscape:label="Layer 1"
     inkscape:groupmode="layer">
    <path
       style="opacity:0.75;fill:url(#linearGradient5501);fill-opacity:1;fill-rule:nonzero;stroke:none;stroke-width:13.71407032;stroke-linecap:round;stroke-linejoin:round;stroke-miterlimit:4;stroke-dasharray:none;stroke-dashoffset:4;stroke-opacity:1"
       d="M 84.001953 3.015625 A 40.984135 40.984135 0 0 0 43.21875 40 L 11.164062 40 C 9.410771 40 8 41.213165 8 42.720703 L 8 117.2793 C 8 118.78684 9.410771 120 11.164062 120 L 84.835938 120 C 86.589229 120 88 118.78684 88 117.2793 L 88 84.748047 A 40.984135 40.984135 0 0 0 124.98438 43.998047 A 40.984135 40.984135 0 0 0 84.001953 3.015625 z "
       id="rect5489" />
    <path
       style="fill:url(#linearGradient5503);fill-opacity:1;fill-rule:evenodd;stroke:none;stroke-width:54.85628128;stroke-linecap:round;stroke-linejoin:round;stroke-miterlimit:4;stroke-dasharray:none;stroke-opacity:1"
       d="M 84.007812 9.5585938 A 34.44014 34.44014 0 0 0 49.568359 43.998047 A 34.44014 34.44014 0 0 0 49.84375 48 L 17.523438 48 C 16.67926 48 16 48.564277 16 49.265625 L 16 110.73438 C 16 111.43572 16.67926 112 17.523438 112 L 78.476562 112 C 79.32074 112 80 111.43572 80 110.73438 L 80 78.181641 A 34.44014 34.44014 0 0 0 84.007812 78.439453 A 34.44014 34.44014 0 0 0 118.44922 43.998047 A 34.44014 34.44014 0 0 0 84.007812 9.5585938 z "
       id="rect5491" />
    <path
       style="fill:url(#linearGradient5505);fill-opacity:1;fill-rule:evenodd;stroke:none;stroke-width:6.85703516px;stroke-linecap:butt;stroke-linejoin:miter;stroke-opacity:1"
       d="M 110.57422 22.121094 C 92.35144 31.698733 69.344654 42.21766 49.580078 44.357422 A 34.44014 34.44014 0 0 0 55.013672 62.451172 C 41.995383 65.265088 27.791718 66.788 16 68 L 16 105.26953 C 33.882494 98.067785 55.587953 87.588016 71.652344 75.712891 A 34.811318 34.811318 0 0 0 72.257812 75.9375 C 88.8235 64.775754 105.04094 50.223943 117.99023 38.494141 A 34.44014 34.44014 0 0 0 110.57422 22.121094 z "
       id="path5493" />
  </g>
</svg>
